X:1607
T:A Doubling Scale
C: Kevin Fraser
B: https://bagpipes.ksfraser.com
O: Kevin Fraser
Z:Kevin Fraser
Q:1/4=78
K:HP
M:4/4
L:1/4
%%MIDI gracedivider 4
%%MIDI gchord
%%MIDI beatstring 
|: G {gAd}A A {gAd}A   | B {gAd}A c {gAd}A | d {gAd}A e   {gAd}A   | f {gAd}A g {aAd}A | 
w: EM hindin EN hindin | O hindin O hindin |w: | A hindin E hindin | VE hindin DI hindin |
w: |||- thumb gracenote ^|
   a {Ad}A   a {Ad}A   | g {aAd}A   f {gAd}A |e {gAd}A d {gAd}A | c {gAd}A B {gAd}A |
w: I endin   I endin   | DI hindin VE hindin |E hindin A hindin | O hindin O hindin |
w: ^ Half Doublings ^|
   A {gAd}A G {gAd}A :|
w: EN hindin EM hindin :|
W:
W: Note the High A gracenote from High G for this doubling!
W: Note the Half Doubling from High A
W:
W:
W:
T:G Doubling Scale
C: Kevin Fraser
B: https://bagpipes.ksfraser.com
O: Kevin Fraser
Z:Kevin Fraser
Q:1/4=78
K:HP
M:4/4
L:1/4
%%MIDI gracedivider 4
%%MIDI gchord
%%MIDI beatstring 
|: G {gGd}G A {gGd}G | B {gGd}G c {gGd}G | d {gGd}G e {gGd}G | f {gGd}G g {aGd}G | 
w: em hemdim en hemdim | o hemdim o hemdim   | a hemdim e hemdim | ve hemdim di hemdim |
w: |||- thumb gracenote ^|
   a {Gd}G  a {Gd}G  | g {aGd}G f {gGd}G | e {gGd}G d {gGd}G | c {gGd}G B {gGd}G | A {gGd}G G {gGd}G :|
w: I emdim  I emdim  |  di hemdim ve hemdim | e hemdim a hemdim | o hemdim o hemdim | en hemdim em hemdim
W:
W: Note the High A gracenote from High G for this doubling!
W: Note the Half Doubling from High A


